X:496
T:Vals # 496
T: efter Melker Andersson
M:3/4
L:1/8
K: D
Q: 160
|(DF) Ad fd| (Ac) eg bg| (ag) fg ec| (ed) Bc AF| (DF) Ad fd|
(Ac) eg b2| (ba) fg ec|1 d4z2 :|2 d4Ad|: f2 ff ff| f2e2de| (f2e2)d2|
c4z2| AB cd ef (gf) ga bg| (ba) fg ge|1 d4Ad :|2 d4z2||

